images/gb.svg

<svg width="20" height="15" viewBox="0 0 20 15" fill="none" xmlns="http://www.w3.org/2000/svg">
<mask id="mask0" mask-type="alpha" maskUnits="userSpaceOnUse" x="0" y="0" width="20" height="15">
<rect width="20" height="15" rx="1.5" fill="white"/>
</mask>
<g mask="url(#mask0)">
<path fill-rule="evenodd" clip-rule="evenodd" d="M0 0V15H20V0H0Z" fill="#2E42A5"/>
<path d="M-2.22705 13.9284L2.17401 15.7897L20.0998 2.02366L22.4212 -0.742266L17.7149 -1.36436L10.4034 4.56781L4.51844 8.5647L-2.22705 13.9284Z" fill="white"/>
<path d="M-1.62451 15.2325L0.617623 16.3126L21.5876 -0.999216H18.4394L-1.62451 15.2325Z" fill="#F50100"/>
<path d="M22.2271 13.9284L17.826 15.7897L-0.0997791 2.02366L-2.42124 -0.742266L2.28506 -1.36436L9.59656 4.56781L15.4816 8.5647L22.2271 13.9284Z" fill="white"/>
<path d="M22.0767 14.8643L19.8345 15.9445L10.9053 8.53236L8.25794 7.70422L-2.64483 -0.732773H0.503387L11.4 7.50397L14.2944 8.49699L22.0767 14.8643Z" fill="#F50100"/>
<mask id="path-7-inside-1" fill="white">
<path fill-rule="evenodd" clip-rule="evenodd" d="M12.361 -1.25H7.63877V5H-1.23291V10H7.63877V16.25H12.361V10H21.2671V5H12.361V-1.25Z"/>
</mask>
<path fill-rule="evenodd" clip-rule="evenodd" d="M12.361 -1.25H7.63877V5H-1.23291V10H7.63877V16.25H12.361V10H21.2671V5H12.361V-1.25Z" fill="#F50100"/>
<path d="M7.63877 -1.25V-2.5H6.38877V-1.25H7.63877ZM12.361 -1.25H13.611V-2.5H12.361V-1.25ZM7.63877 5V6.25H8.88877V5H7.63877ZM-1.23291 5V3.75H-2.48291V5H-1.23291ZM-1.23291 10H-2.48291V11.25H-1.23291V10ZM7.63877 10H8.88877V8.75H7.63877V10ZM7.63877 16.25H6.38877V17.5H7.63877V16.25ZM12.361 16.25V17.5H13.611V16.25H12.361ZM12.361 10V8.75H11.111V10H12.361ZM21.2671 10V11.25H22.5171V10H21.2671ZM21.2671 5H22.5171V3.75H21.2671V5ZM12.361 5H11.111V6.25H12.361V5ZM7.63877 0H12.361V-2.5H7.63877V0ZM8.88877 5V-1.25H6.38877V5H8.88877ZM-1.23291 6.25H7.63877V3.75H-1.23291V6.25ZM0.0170898 10V5H-2.48291V10H0.0170898ZM7.63877 8.75H-1.23291V11.25H7.63877V8.75ZM8.88877 16.25V10H6.38877V16.25H8.88877ZM12.361 15H7.63877V17.5H12.361V15ZM11.111 10V16.25H13.611V10H11.111ZM21.2671 8.75H12.361V11.25H21.2671V8.75ZM20.0171 5V10H22.5171V5H20.0171ZM12.361 6.25H21.2671V3.75H12.361V6.25ZM11.111 -1.25V5H13.611V-1.25H11.111Z" fill="white" mask="url(#path-7-inside-1)"/>
<rect width="20" height="15" fill="url(#paint0_linear)" style="mix-blend-mode:overlay"/>
</g>
<defs>
<linearGradient id="paint0_linear" x1="10" y1="0" x2="10" y2="15" gradientUnits="userSpaceOnUse">
<stop stop-color="white" stop-opacity="0.7"/>
<stop offset="1" stop-opacity="0.3"/>
</linearGradient>
</defs>
</svg>

<svg width="20" height="15" fill="none" xmlns="http://www.w3.org/2000/svg"><mask id="a" mask-type="alpha" maskUnits="userSpaceOnUse" x="0" y="0" width="20" height="15"><rect width="20" height="15" rx="1.5" fill="#fff"/></mask><g mask="url(#a)"><path fill-rule="evenodd" clip-rule="evenodd" d="M0 0v15h20V0H0Z" fill="#2E42A5"/><path d="m-2.227 13.928 4.401 1.862L20.1 2.024 22.42-.742l-4.706-.622-7.312 5.932-5.885 3.997-6.745 5.363Z" fill="#fff"/><path d="m-1.625 15.232 2.243 1.08L21.588-.998h-3.149L-1.625 15.232Z" fill="#F50100"/><path d="m22.227 13.928-4.401 1.862L-.1 2.024-2.42-.742l4.706-.622 7.312 5.932 5.885 3.997 6.745 5.363Z" fill="#fff"/><path d="m22.077 14.864-2.243 1.08-8.929-7.412-2.647-.828L-2.645-.733H.503L11.4 7.504l2.894.993 7.783 6.367Z" fill="#F50100"/><mask id="b" fill="#fff"><path fill-rule="evenodd" clip-rule="evenodd" d="M12.361-1.25H7.639V5h-8.872v5H7.64v6.25h4.722V10h8.906V5h-8.906v-6.25Z"/></mask><path fill-rule="evenodd" clip-rule="evenodd" d="M12.361-1.25H7.639V5h-8.872v5H7.64v6.25h4.722V10h8.906V5h-8.906v-6.25Z" fill="#F50100"/><path d="M7.639-1.25V-2.5h-1.25v1.25h1.25Zm4.722 0h1.25V-2.5h-1.25v1.25ZM7.639 5v1.25h1.25V5h-1.25Zm-8.872 0V3.75h-1.25V5h1.25Zm0 5h-1.25v1.25h1.25V10Zm8.872 0h1.25V8.75h-1.25V10Zm0 6.25h-1.25v1.25h1.25v-1.25Zm4.722 0v1.25h1.25v-1.25h-1.25Zm0-6.25V8.75h-1.25V10h1.25Zm8.906 0v1.25h1.25V10h-1.25Zm0-5h1.25V3.75h-1.25V5Zm-8.906 0h-1.25v1.25h1.25V5ZM7.639 0h4.722v-2.5H7.639V0Zm1.25 5v-6.25h-2.5V5h2.5ZM-1.233 6.25H7.64v-2.5h-8.872v2.5ZM.017 10V5h-2.5v5h2.5ZM7.64 8.75h-8.872v2.5H7.64v-2.5Zm1.25 7.5V10h-2.5v6.25h2.5ZM12.36 15H7.639v2.5h4.722V15Zm-1.25-5v6.25h2.5V10h-2.5Zm10.156-1.25h-8.906v2.5h8.906v-2.5ZM20.017 5v5h2.5V5h-2.5Zm-7.656 1.25h8.906v-2.5h-8.906v2.5Zm-1.25-7.5V5h2.5v-6.25h-2.5Z" fill="#fff" mask="url(#b)"/><path fill="url(#c)" style="mix-blend-mode:overlay" d="M0 0h20v15H0z"/></g><defs><linearGradient id="c" x1="10" y1="0" x2="10" y2="15" gradientUnits="userSpaceOnUse"><stop stop-color="#fff" stop-opacity=".7"/><stop offset="1" stop-opacity=".3"/></linearGradient></defs></svg>
